MODULE MainModule
	PROC main()
		MoveJ [[313.20,472.74,286.61],[0.0071892,0.0418963,-0.998093,-0.0447545],[0,0,0,0],[9E+09,9E+09,9E+09,9E+09,9E+09,9E+09]], v1000, z50, tool0;
		MoveJ [[-297.32,466.96,286.61],[0.00719173,0.0418971,-0.998093,-0.0447533],[1,-1,1,0],[9E+09,9E+09,9E+09,9E+09,9E+09,9E+09]], v1000, z50, tool0;
		MoveJ [[-297.32,466.96,387.52],[0.00719388,0.0418948,-0.998093,-0.0447557],[1,-1,1,0],[9E+09,9E+09,9E+09,9E+09,9E+09,9E+09]], v1000, z50, tool0;
		MoveJ [[-297.18,145.77,387.52],[0.00719383,0.0418903,-0.998094,-0.0447494],[1,-1,1,0],[9E+09,9E+09,9E+09,9E+09,9E+09,9E+09]], v1000, z50, tool0;
		MoveJ [[-297.17,145.77,661.57],[0.00717474,0.0418969,-0.998093,-0.0447553],[1,-1,1,0],[9E+09,9E+09,9E+09,9E+09,9E+09,9E+09]], v1000, z50, tool0;
		MoveJ [[303.70,145.77,658.37],[0.00716408,0.0418811,-0.998094,-0.0447522],[0,0,0,0],[9E+09,9E+09,9E+09,9E+09,9E+09,9E+09]], v1000, z50, tool0;
		MoveJ [[303.70,145.78,141.31],[0.00715299,0.0418836,-0.998093,-0.0447651],[0,0,0,0],[9E+09,9E+09,9E+09,9E+09,9E+09,9E+09]], v1000, z50, tool0;
		MoveJ [[303.72,-402.75,141.31],[0.00716222,0.0418394,-0.998098,-0.0447019],[-1,0,-1,0],[9E+09,9E+09,9E+09,9E+09,9E+09,9E+09]], v1000, z50, tool0;
		MoveJ [[-318.53,-402.94,141.31],[0.00716286,0.041841,-0.998098,-0.0447004],[-2,-1,-2,0],[9E+09,9E+09,9E+09,9E+09,9E+09,9E+09]], v1000, z50, tool0;
		MoveJ [[-318.53,-402.94,445.56],[0.00717162,0.0418302,-0.9981,-0.0446767],[-2,-1,-2,0],[9E+09,9E+09,9E+09,9E+09,9E+09,9E+09]], v1000, z50, tool0;
		MoveJ [[-317.57,-105.58,445.55],[0.00715611,0.0418397,-0.998098,-0.0447003],[-2,-1,-2,0],[9E+09,9E+09,9E+09,9E+09,9E+09,9E+09]], v1000, z50, tool0;
		MoveJ [[-317.68,-105.58,650.78],[0.00716492,0.0418397,-0.998098,-0.0447072],[-2,-1,-2,0],[9E+09,9E+09,9E+09,9E+09,9E+09,9E+09]], v1000, z50, tool0;
		MoveJ [[319.50,-139.03,650.44],[0.00717192,0.0418339,-0.998098,-0.0447159],[-1,0,-1,0],[9E+09,9E+09,9E+09,9E+09,9E+09,9E+09]], v1000, z50, tool0;
		MoveJ [[319.50,-139.03,395.98],[0.00716952,0.041837,-0.998098,-0.0447075],[-1,0,-1,0],[9E+09,9E+09,9E+09,9E+09,9E+09,9E+09]], v1000, z50, tool0;
		MoveAbsJ [[-0.156093,0.538919,0.230629,-0.241518,-0.757838,4.53954],[9E+09,9E+09,9E+09,9E+09,9E+09,9E+09]]\NoEOffs, v1000, z50, tool0;
	ENDPROC
ENDMODULE